X: 30123
T: Old Bog Ground, The
R: reel
M: 4/4
K: Gmajor
G2 EG DGBG|EGBG AGEA|G2 EG DGBc|dBcA BG G2:|
Bd~d2 ec~c2|dBGB AGED|Bd~d2 efge|dBAc BG G2|
Bd~d2 efge|dBGB AGED|Bdef gage|dBAc BGAF||

